app/dist/common/images/marvell-tech.svg

<svg height="18" width="18" xmlns="http://www.w3.org/2000/svg" xmlns:xlink="http://www.w3.org/1999/xlink"><linearGradient id="a" gradientUnits="userSpaceOnUse" x1="3.349" x2="21.904" y1="3.122" y2="24.434"><stop offset="0" stop-color="#1a1e21"/><stop offset="1" stop-color="#06060a"/></linearGradient><path d="m0 0h18v18h-18z" fill="url(#a)"/><path d="m13 5 1-1v10l-1-1zm-8 0-1-1v10l1-1zm6.813 1 .937-1h-7.5l.938 1zm-.14 6 1.077 1h-7.5l1.022-1zm-.673-4.392 1-1.108v5l-1-.938zm-4-.041-1-1.067v5l1-.938zm2 2.051 1.486-1.618h-2.973z" fill="#fff"/></svg>

<!-- by TradingView --><svg width="18" height="18" xmlns="http://www.w3.org/2000/svg"><path fill="url(#paint0_linear)" d="M0 0h18v18H0z"/><path d="M13 5l1-1v10l-1-1V5zM5 5L4 4v10l1-1V5zM11.813 6l.937-1h-7.5l.938 1h5.625zM11.673 12l1.077 1h-7.5l1.022-1h5.401zM11 7.608L12 6.5v5l-1-.938V7.608zM7 7.567L6 6.5v5l1-.938V7.567zM9 9.618L10.486 8H7.513L9 9.618z" fill="#fff"/><defs><linearGradient id="paint0_linear" x1="3.349" y1="3.122" x2="21.904" y2="24.434" gradientUnits="userSpaceOnUse"><stop stop-color="#1A1E21"/><stop offset="1" stop-color="#06060A"/></linearGradient></defs></svg>
